static/img/in-field/checkbox-progression-active-default.svg

<svg fill="none" height="56" viewBox="0 0 56 56" width="56" xmlns="http://www.w3.org/2000/svg"><g clip-rule="evenodd" fill-rule="evenodd"><path d="m18.6667 16h18.6666c1.48 0 2.6667 1.2 2.6667 2.6667v18.6666c0 1.4667-1.1867 2.6667-2.6667 2.6667h-18.6666c-1.48 0-2.6667-1.2-2.6667-2.6667v-18.6666c0-1.4667 1.1867-2.6667 2.6667-2.6667zm0 12 6.6666 6.6667 12-12-1.88-1.8934-10.12 10.12-4.7866-4.7733z" fill="#0063a3"/><path d="m18.6667 28 6.6666 6.6667 12-12-1.88-1.8934-10.12 10.12-4.7866-4.7733z" fill="#fff"/></g></svg>

<svg width="56" height="56" viewBox="0 0 56 56" fill="none" xmlns="http://www.w3.org/2000/svg"><path fill-rule="evenodd" clip-rule="evenodd" d="M18.6667 16H37.3333C38.8133 16 40 17.2 40 18.6667V37.3333C40 38.8 38.8133 40 37.3333 40H18.6667C17.1867 40 16 38.8 16 37.3333V18.6667C16 17.2 17.1867 16 18.6667 16ZM18.6667 28L25.3333 34.6667L37.3333 22.6667L35.4533 20.7733L25.3333 30.8933L20.5467 26.12L18.6667 28Z" fill="#0063A3"/><path fill-rule="evenodd" clip-rule="evenodd" d="M18.6667 28L25.3333 34.6667L37.3333 22.6667L35.4533 20.7733L25.3333 30.8933L20.5467 26.12L18.6667 28Z" fill="#fff"/></svg>
